X:4009
T:Dennis Murphy's Polka
R:Polka
C:Trad.
O:Ireland
M:2/4
L:1/16
Q:1/4=100
K:D
"D"fgfe d2B2|"Bm"A2D2 F2A2|"Em"G2E2 e3d|"A7"c2B2 B2A2|
"D"fgfe d2B2|"Bm"A2D2 F2A2|"Em"G2E2 "A7"e3f|"D"e2d2 d4:|
|:"D"A2f2 fef2|"G"B2g2 gfg2|"D"A2f2 fed2|"A7"efed B2A2|
"D"A2f2 fef2|"G"B2g2 g3a|b2a2 "A7"g2ef|"D"e2d2 d4:|

